X:79
T:Prenez garde plain-pied 
R:bourr\'ee 3t
C:trad
N:original url: www.wolfram.claranet.de
D:ADP, Bourr\'ees en Berry et Bourbonnais 6
M:3/8
L:1/8
Q:1/8=211
K:Am
A|: e/f/ed| e2B/c/| dcB/c/| A^GA | e/f/ed| e2B/c/| dc {Bc}B| A2A:|
|: A^GA| E2A| A^G A/B/| cTBA| A^GA| E2A/A/| Ac{Bc}B| A2A:||
